X:1
T: Teahan's Favourite
C: R-120
M: C|
Z:
R: polka
K: A
"A"c2ec B2A2| "E7"F2A2 A2B2| "A"c2ec B2A2| B2c2 "E7"e3f|
"A"e2c2 B2A2| F2A2 A2B2| "D"c2Bc "E7"e2c2| "A"B2A2 A4 :|
|:\
"A"a3f e2c2| e2c2 B2A2| a3f e2c2| "E7"Bcd2 e4|
"A"a3f e2c2| e2c2 B2A2| "D"c2Bc "E7"e2c2| "A"B2A2 A4 :|
%
